img/stats-img-1.svg

<svg width="80" height="99" viewBox="0 0 80 99" fill="none" xmlns="http://www.w3.org/2000/svg">
<path d="M0 13C0 5.8203 5.8203 0 13 0H80V99H13C5.8203 99 0 93.1797 0 86V13Z" fill="url(#paint0_linear)"/>
<path d="M49.2514 50.6406C48.6403 49.8596 47.7188 49.3233 46.4862 49.0316C48.0559 48.2396 48.746 46.8961 48.5562 44.9997C48.4931 44.3123 48.3005 43.7163 47.9795 43.2112C47.6579 42.706 47.224 42.2999 46.6755 41.9924C46.1276 41.6848 45.532 41.4505 44.89 41.2891C44.2474 41.1276 43.5102 41.0105 42.6778 40.9377V37H40.2447V40.8283C39.8235 40.8283 39.1809 40.8387 38.3169 40.8595V37H35.8828V40.9377C35.5352 40.9481 35.0243 40.9536 34.3502 40.9536L31 40.9377V43.5001H32.754C33.5548 43.5001 34.0236 43.8542 34.1603 44.5624V49.0469C34.2661 49.0469 34.3502 49.0524 34.4133 49.0628H34.1603V55.344C34.0762 55.8749 33.7707 56.1408 33.2438 56.1408H31.4898L31 59.001H34.1603C34.3607 59.001 34.6502 59.0037 35.0293 59.0081C35.4084 59.0136 35.6929 59.0157 35.8822 59.0157V63H38.3164V59.0623C38.7586 59.0732 39.4012 59.0781 40.2441 59.0781V63H42.6778V59.0157C43.5417 58.9741 44.3083 58.8964 44.9769 58.7815C45.646 58.6666 46.2859 58.4871 46.8969 58.2419C47.5079 57.9972 48.0188 57.6924 48.4295 57.3279C48.8407 56.9634 49.18 56.4999 49.449 55.9373C49.7174 55.3746 49.8884 54.7234 49.962 53.984C50.0998 52.5364 49.8624 51.4216 49.2514 50.6406ZM38.364 43.6714C38.4376 43.6714 38.6457 43.6687 38.9883 43.6638C39.3309 43.6583 39.6154 43.6534 39.8418 43.6479C40.0681 43.643 40.3736 43.6556 40.7583 43.6868C41.143 43.718 41.4668 43.7596 41.7302 43.8115C41.9937 43.8635 42.2837 43.9495 42.5992 44.0693C42.9152 44.1892 43.1681 44.3348 43.3574 44.5066C43.5473 44.6784 43.7078 44.8974 43.8395 45.1628C43.9712 45.4282 44.0371 45.7331 44.0371 46.0768C44.0371 46.3685 43.9895 46.6339 43.8948 46.8742C43.8002 47.1139 43.658 47.3142 43.4681 47.4756C43.2788 47.6371 43.0835 47.7777 42.8831 47.8976C42.6833 48.0174 42.4276 48.1138 42.1165 48.1866C41.806 48.2594 41.5348 48.3168 41.3029 48.3584C41.071 48.4 40.7816 48.429 40.434 48.4443C40.0864 48.4597 39.8229 48.4706 39.6436 48.4755C39.4643 48.4805 39.2196 48.4805 38.9086 48.4755C38.5975 48.4706 38.416 48.4679 38.3634 48.4679L38.364 43.6714ZM45.009 54.3124C44.9088 54.5521 44.7799 54.7606 44.6221 54.9379C44.4638 55.1147 44.2557 55.2712 43.9978 55.4064C43.7399 55.5421 43.4897 55.651 43.2473 55.7348C43.0049 55.8185 42.7126 55.8907 42.3706 55.9537C42.028 56.0161 41.728 56.0604 41.4695 56.0867C41.2116 56.1129 40.9033 56.1337 40.5452 56.1491C40.1871 56.1644 39.9076 56.172 39.7078 56.172C39.5075 56.172 39.2545 56.1693 38.949 56.1644C38.6435 56.1595 38.4487 56.1567 38.364 56.1567V50.8748C38.4481 50.8748 38.6983 50.8699 39.1145 50.859C39.5307 50.8486 39.8705 50.8436 40.134 50.8436C40.3974 50.8436 40.7611 50.859 41.2249 50.8907C41.6881 50.9219 42.0778 50.9684 42.3944 51.0308C42.7104 51.0932 43.0552 51.1895 43.4294 51.3198C43.8035 51.45 44.1063 51.6088 44.3382 51.7965C44.5701 51.9842 44.7649 52.2234 44.9226 52.5151C45.0809 52.8068 45.1601 53.1401 45.1601 53.515C45.159 53.8072 45.1092 54.0726 45.009 54.3124Z" fill="url(#paint1_linear)"/>
<defs>
<linearGradient id="paint0_linear" x1="36.2667" y1="-4.8125" x2="63.0238" y2="96.2944" gradientUnits="userSpaceOnUse">
<stop stop-color="#524E7B"/>
<stop offset="1" stop-color="#1D1B45"/>
</linearGradient>
<linearGradient id="paint1_linear" x1="40.5" y1="37" x2="40.5" y2="63" gradientUnits="userSpaceOnUse">
<stop stop-color="#6B71FF"/>
<stop offset="1" stop-color="#6B71FF"/>
</linearGradient>
</defs>
</svg>

<svg width="80" height="99" fill="none" xmlns="http://www.w3.org/2000/svg"><path d="M0 13C0 5.82 5.82 0 13 0h67v99H13C5.82 99 0 93.18 0 86V13z" fill="url(#paint0_linear)"/><path d="M49.251 50.64c-.61-.78-1.532-1.317-2.765-1.608 1.57-.792 2.26-2.136 2.07-4.032-.063-.688-.255-1.284-.576-1.789a3.603 3.603 0 00-1.304-1.219 7.23 7.23 0 00-1.786-.703 14.222 14.222 0 00-2.212-.351V37h-2.433v3.828c-.421 0-1.064.01-1.928.031V37h-2.434v3.938c-.348.01-.859.016-1.533.016L31 40.938V43.5h1.754c.8 0 1.27.354 1.406 1.062v4.485c.106 0 .19.005.253.016h-.253v6.281c-.084.53-.39.797-.916.797H31.49L31 59h3.16c.2 0 .49.003.87.007.378.006.663.008.852.008V63h2.434v-3.938c.443.011 1.085.016 1.928.016V63h2.434v-3.984c.864-.042 1.63-.12 2.299-.234a9.418 9.418 0 001.92-.54c.61-.245 1.122-.55 1.532-.914a4.313 4.313 0 001.02-1.39c.268-.563.44-1.215.513-1.954.138-1.448-.1-2.562-.71-3.343zm-10.887-6.969a111.062 111.062 0 001.478-.023 9.4 9.4 0 01.916.039c.385.031.709.073.972.125.264.052.554.138.87.257.315.12.568.266.757.438.19.171.35.39.483.656.131.265.197.57.197.914 0 .291-.047.557-.142.797-.095.24-.237.44-.427.602-.19.161-.385.302-.585.422-.2.12-.455.216-.767.289-.31.072-.581.13-.813.171a6.71 6.71 0 01-.869.086 37.84 37.84 0 01-.79.031c-.18.005-.424.005-.735 0a66.774 66.774 0 00-.546-.007l.001-4.797zm6.645 10.641c-.1.24-.23.449-.387.626a2.194 2.194 0 01-.624.468 5.414 5.414 0 01-.75.329 6.129 6.129 0 01-.877.219c-.343.062-.643.106-.902.133-.257.026-.566.047-.924.062a20.901 20.901 0 01-1.596.015 44.36 44.36 0 00-.585-.007v-5.282c.084 0 .334-.005.75-.016.417-.01.757-.015 1.02-.015s.627.015 1.09.047c.464.03.854.077 1.17.14.316.062.661.159 1.035.289.374.13.677.289.91.477.231.187.426.426.584.718.158.292.237.625.237 1-.001.292-.05.558-.151.797z" fill="url(#paint1_linear)"/><defs><linearGradient id="paint0_linear" x1="36.267" y1="-4.813" x2="63.024" y2="96.294" gradientUnits="userSpaceOnUse"><stop stop-color="#524E7B"/><stop offset="1" stop-color="#1D1B45"/></linearGradient><linearGradient id="paint1_linear" x1="40.5" y1="37" x2="40.5" y2="63" gradientUnits="userSpaceOnUse"><stop stop-color="#6B71FF"/><stop offset="1" stop-color="#6B71FF"/></linearGradient></defs></svg>
